X: 7
T:Boyne Hunt, The
M:C|
L:1/8
Q:200
S:THSP
R:reel
K:D
"D"(3ABA FA DAFA | (3ABA FA "G"BE~E2 | "D"(3ABA FA DAFA 
|1 "A"ABde fdd2:|2 "A"ABde fdde||
"D"faaf a3f |"G"gfga be ~e2 |"D"faaf afdB | "A"ABde "D"fdd2 |
faaf a3f |"G"gfga be e2|"D"~f3e dcdB |"A"ABde fddB|]
